X:200
T: A Man's A Man for A' That
N: O'Farrell's Pocket Companion v.3 (Sky ed. p.102)
N: "Scotch"
M: C
R: march
L: 1/8
Q: 220
K: D
A/B/| d>edA Bde>g| f>edA B2 Bf/e/| d>edA Bde>g| fedB A2A :|
g| f>gaf g>feg| f>gad B2 Bg| fgaf/a/ beeg| fedB A2A :|
